X:1
T:Himself
T:Himself
T:Albert Benjamin Simpson
T:Albert Benjamin Simpson, 1904
T:Public Domain Courtesy of the Cyber Hymnal™
T:Public Domain Courtesy of the Cyber Hymnal™
C:Albert Benjamin Simpson
Z:Public Domain
Z:Courtesy of the Cyber Hymnal™
%%score ( 1 2 ) ( 3 4 )
L:1/8
Q:1/4=110
M:6/8
K:F
V:1 treble 
V:2 treble 
V:3 bass 
V:4 bass 
V:1
 [CF]2 C [CF]2 [CG] | [FA]3 [CF]3 | [CA]2 [CG] [DF]2 [B,D] | C3- C2 z | [CF]2 [CG] [FA]2 [FB] | %5
w: 1.~Once it was the|bless- ing,|Now it is the|Lord; *|Once it was the|
w: 2.~Once ’twas pain- ful|try- ing,|Now ’tis per- fect|trust; *|Once a half sal-|
w: 3.~Once ’twas bu- sy|plan- ning,|Now ’tis trust- ful|prayer; *|Once ’twas anx- ious|
w: 4.~Once it was my|work- ing,|His it hence shall|be; *|Once I tried to|
w: 5.~Once I hoped in|Je- sus,|Now I know He’s|mine; *|Once my lamps were|
 [Fc]3 [CF]3 | [CG]2 [CG] [FG]2 [FA] | [EG]3- [EG]2 z | [EB]2 [EB] [Ed]2 [Ec] | [Fc]3 [FA]3 | %10
w: feel- ing,|Now it is His|Word; *|Once His gift I|want- ed,|
w: va- tion,|Now the ut- ter-|most; *|Once ’twas cease- less|hold- ing,|
w: car- ing,|Now He has the|care; *|Once ’twas what I|want- ed,|
w: use Him,|Now He us- es|me; *|Once the pow’r I|want- ed,|
w: dy- ing,|Now they bright- ly|shine; *|Once for death I|wait- ed,|
 [Fc]2 [Fc] [Ff]2 [Fd] | [Fc]3- [Fc]2 z | F2 [FG] [FA]2 [FB] | [Fc]3 [CF]3 | %14
w: Now, the Giv- er|own; *|Once I sought for|heal- ing,|
w: Now He holds me|fast; *|Once ’twas con- stant|drift- ing,|
w: Now what Je- sus|says; *|Once ’twas con- stant|ask- ing,|
w: Now the Might- y|One; *|Once for self I|la- bored,|
w: Now His com- ing|hail; *|And my hopes are|an- chored|
 [DG]2 [DF] [FA]2 [EG] | F3- F2 z ||"^Refrain" [Fc]2 [FA] [Fc]2 F | [FB]3 [FA]3 | %18
w: Now Him- self a-|lone. *|||
w: Now my an- chor’s|cast. *|||
w: Now ’tis cease- less|praise. *|All in all for-|ev- er,|
w: Now for Him a-|lone. *|||
w: Safe with- in the|veil. *|||
 [CF]2 C (FG)[FA] | ([E-G]3 [Ec]2) z | [Fc]2 [FA] [CG]2 F | (B2 d) !fermata![Fc]2 [Fc] | %22
w: ||||
w: ||||
w: Je- sus will * I|sing; *|Ev- ery- thing in|Je- * sus, And|
w: ||||
w: ||||
 [Af]2 [Fc] [FA]2 [EG] | [CF]3- [CF]2 z |] %24
w: ||
w: ||
w: Je- sus ev- ery-|thing. *|
w: ||
w: ||
V:2
 x2 C x3 | x6 | x6 | C3- C2 x | x6 | x6 | x6 | x6 | x6 | x6 | x6 | x6 | F2 x4 | x6 | x6 | %15
 F3- F2 x || x5 F | x6 | x2 C C2 x | x6 | x5 F | F3 x3 | x6 | x6 |] %24
V:3
 [F,A,]2 [F,A,] [F,A,]2 [F,B,] | [F,C]3 [F,A,]3 | [F,A,]2 [F,A,] [B,,B,]2 [B,,F,] | %3
 [F,A,]3- [F,A,]2 z | [F,A,]2 [F,B,] [F,C]2 [F,G,] | [F,A,]3 [F,A,]3 | %6
 [E,G,]2 [E,G,] [D,=B,]2 [G,,B,] | [C,C]3- [C,C]2 z | [C,G,]2 [C,G,] [C,B,]2 [C,B,] | %9
 [F,A,]3 [F,C]3 | [F,A,]2 [F,A,] [F,D]2 [F,B,] | [F,A,]3- [F,A,]2 z | %12
 [F,A,]2 [F,B,] [F,C]2 [F,G,] | [F,A,]3 [F,A,]3 | [B,,B,]2 [B,,B,] [C,A,]2 [C,B,] | %15
 [F,A,]3- [F,A,]2 z || [F,A,]2 [F,C] [F,A,]2 [F,A,] | [F,D]3 [F,C]3 | [F,A,]2 [F,A,] (A,B,)[F,C] | %19
 [C,B,]3- [C,B,]2 z | [F,A,]2 [F,C] [F,B,]2 [F,A,] | (D2 B,) !fermata![F,A,]2 [F,A,] | %22
 [F,C]2 [F,A,] [C,C]2 [C,B,] | [F,A,]3- [F,A,]2 z |] %24
V:4
 x6 | x6 | x6 | x6 | x6 | x6 | x6 | x6 | x6 | x6 | x6 | x6 | x6 | x6 | x6 | x6 || x6 | x6 | %18
 x3 F,2 x | x6 | x6 | F,3 x3 | x6 | x6 |] %24

